report_00007_2020-12-11T15:55:29.892Z/cumulative-layout-shift/comparison/line/2_vs_3.svg

<svg width="640" height="500" xmlns="http://www.w3.org/2000/svg" xmlns:xlink="http://www.w3.org/1999/xlink"><path fill="#fff" d="M0 0h640v500H0z"/><defs><path id="d" stroke-width=".222" stroke="currentColor" d="M-1-1h2v2h-2z"/><path id="b" stroke-width=".222" stroke="currentColor" d="M0-1.33l-1.33 2h2.66z"/><path id="f" stroke-width=".222" stroke="currentColor" d="M0 1.33L1.265.411.782-1.067l-1.564-.009-.483 1.487z"/><use xlink:href="#b" id="c" stroke="currentColor" transform="rotate(180)"/><use xlink:href="#d" id="e" stroke="currentColor" transform="rotate(45)"/><circle id="a" stroke-width=".222" stroke="currentColor" cx="0" cy="0" r="1"/></defs><g fill="none" color="#000" stroke="currentColor"><path stroke="#000" d="M62.2 412.5h9m543.8 0h-9"/><text transform="translate(53.9 416.4)" stroke="none" fill="#000" font-family="Arial" font-size="12" text-anchor="end"><tspan>0.1</tspan></text></g><g fill="none" color="#000" stroke="currentColor"><path stroke="#000" d="M62.2 350.2h9m543.8 0h-9"/><text transform="translate(53.9 354.1)" stroke="none" fill="#000" font-family="Arial" font-size="12" text-anchor="end"><tspan>0.15</tspan></text></g><g fill="none" color="#000" stroke="currentColor"><path stroke="#000" d="M62.2 287.9h9m543.8 0h-9"/><text transform="translate(53.9 291.8)" stroke="none" fill="#000" font-family="Arial" font-size="12" text-anchor="end"><tspan>0.2</tspan></text></g><g fill="none" color="#000" stroke="currentColor"><path stroke="#000" d="M62.2 225.5h9m543.8 0h-9"/><text transform="translate(53.9 229.4)" stroke="none" fill="#000" font-family="Arial" font-size="12" text-anchor="end"><tspan>0.25</tspan></text></g><g fill="none" color="#000" stroke="currentColor"><path stroke="#000" d="M62.2 163.2h9m543.8 0h-9"/><text transform="translate(53.9 167.1)" stroke="none" fill="#000" font-family="Arial" font-size="12" text-anchor="end"><tspan>0.3</tspan></text></g><g fill="none" color="#000" stroke="currentColor"><path stroke="#000" d="M62.2 100.9h9m543.8 0h-9"/><text transform="translate(53.9 104.8)" stroke="none" fill="#000" font-family="Arial" font-size="12" text-anchor="end"><tspan>0.35</tspan></text></g><g fill="none" color="#000" stroke="currentColor"><path stroke="#000" d="M62.2 38.5h9m543.8 0h-9"/><text transform="translate(53.9 42.4)" stroke="none" fill="#000" font-family="Arial" font-size="12" text-anchor="end"><tspan>0.4</tspan></text></g><g fill="none" color="#000" stroke="currentColor"><path stroke="#000" d="M62.2 428v-9m0-400.9v9"/><text transform="translate(62.2 449.9)" stroke="none" fill="#000" font-family="Arial" font-size="12" text-anchor="middle"><tspan>0</tspan></text></g><g fill="none" color="#000" stroke="currentColor"><path stroke="#000" d="M118 428v-9m0-400.9v9"/><text transform="translate(118 449.9)" stroke="none" fill="#000" font-family="Arial" font-size="12" text-anchor="middle"><tspan>10</tspan></text></g><g fill="none" color="#000" stroke="currentColor"><path stroke="#000" d="M173.9 428v-9m0-400.9v9"/><text transform="translate(173.9 449.9)" stroke="none" fill="#000" font-family="Arial" font-size="12" text-anchor="middle"><tspan>20</tspan></text></g><g fill="none" color="#000" stroke="currentColor"><path stroke="#000" d="M229.7 428v-9m0-400.9v9"/><text transform="translate(229.7 449.9)" stroke="none" fill="#000" font-family="Arial" font-size="12" text-anchor="middle"><tspan>30</tspan></text></g><g fill="none" color="#000" stroke="currentColor"><path stroke="#000" d="M285.6 428v-9m0-400.9v9"/><text transform="translate(285.6 449.9)" stroke="none" fill="#000" font-family="Arial" font-size="12" text-anchor="middle"><tspan>40</tspan></text></g><g fill="none" color="#000" stroke="currentColor"><path stroke="#000" d="M341.4 428v-9m0-400.9v9"/><text transform="translate(341.4 449.9)" stroke="none" fill="#000" font-family="Arial" font-size="12" text-anchor="middle"><tspan>50</tspan></text></g><g fill="none" color="#000" stroke="currentColor"><path stroke="#000" d="M397.2 428v-9m0-400.9v9"/><text transform="translate(397.2 449.9)" stroke="none" fill="#000" font-family="Arial" font-size="12" text-anchor="middle"><tspan>60</tspan></text></g><g fill="none" color="#000" stroke="currentColor"><path stroke="#000" d="M453.1 428v-9m0-400.9v9"/><text transform="translate(453.1 449.9)" stroke="none" fill="#000" font-family="Arial" font-size="12" text-anchor="middle"><tspan>70</tspan></text></g><g fill="none" color="#000" stroke="currentColor"><path stroke="#000" d="M508.9 428v-9m0-400.9v9"/><text transform="translate(508.9 449.9)" stroke="none" fill="#000" font-family="Arial" font-size="12" text-anchor="middle"><tspan>80</tspan></text></g><g fill="none" color="#000" stroke="currentColor"><path stroke="#000" d="M564.7 428v-9m0-400.9v9"/><text transform="translate(564.7 449.9)" stroke="none" fill="#000" font-family="Arial" font-size="12" text-anchor="middle"><tspan>90</tspan></text></g><path stroke="#000" d="M62.2 18.1V428H615V18.1H62.2z" fill="none" color="#000"/><text transform="translate(279.8 467.9)" stroke="none" fill="#000" font-family="Arial" font-size="12" text-anchor="end" color="#000"><tspan>pages+cached</tspan></text><path stroke="#9400D3" d="M288.1 464h42.2M62.2 190.5l5.6-151.1 5.6 24.2 5.6 236h16.7l5.6-235.9 5.6-.1 5.6-24.2L118 251l5.6-211.6 5.6 260.2 5.6-235.9 5.6-24.3 5.6 24.3 5.5 235.9 5.6-235.9 5.6 167.8 5.6-167.9 5.6 187.4h5.6L185 39.4l5.6 260.2 5.6-68.1 5.6 19.5 5.6-19.5L213 39.4l5.5 211.6 5.6-187.3 5.6-24.3h5.6l5.6 260.2h5.6l5.6-260.2 5.5 260.2 5.6-260.2 5.6 101.9 5.6 109.7L280 39.4l5.6 260.2h5.5l5.6-235.9 5.6 167.8 5.6 68.1 5.6-68.1 5.6-167.9 5.5 236h5.6l5.6-235.9 5.6 250L347 251l5.6 48.6 5.5-260.1 5.6 24.2 5.6-37.7 5.6 37.7 5.6-.1 5.6-24.2 5.5 211.6 5.6-187.3 5.6-24.3 5.6 211.6 5.6 48.6 5.6-235.9 5.5 167.8 5.6 68.1 5.6-68.1h5.6l5.6 19.5 5.6-211.6 5.6 260.2 5.5-260.2h5.6l5.6 192.1 5.6 68 5.6-68 5.6 19.5 5.5 48.6 5.6-68.1 5.6-167.8 5.6 167.8 5.6-167.8 5.6-24.3h11.1l5.6 24.3 5.6 235.9h5.6l5.6-235.9 5.5 235.9 5.6-236h5.6l5.6 356.5 5.6-188.6 5.6 68.1 5.5 14.1 5.6-14.1 5.6-48.6L615 63.7" fill="none" color="#000"/><text transform="translate(279.8 485.9)" stroke="none" fill="#000" font-family="Arial" font-size="12" text-anchor="end" color="#000"><tspan>pages+cached+nointeractive</tspan></text><path stroke="#009E73" d="M288.1 482h42.2M62.2 251l5.6 48.6 5.6-68.1h11.1l5.6 68.1 5.6-48.6 5.6-187.3 5.6-24.3 5.6 24.3 5.5-24.3 5.6-13.4 5.6 225 5.6-187.3 5.6 167.8 5.6 68.1 5.5-260.2 5.6 260.2h5.6l5.6-235.9 5.6 235.9 5.6-.1h5.5l5.6.1 5.6-235.9h5.6l5.6 235.9 5.6 14.1 5.5-274.3 5.6 274.3 5.6-274.3 5.6 260.2h5.6l5.6-235.9 5.6-.1 5.5 236 5.6-260.2 5.6 260.1 5.6-260.1 5.6 260.2 5.6-.1 5.5-260.1h5.6l5.6 260.2 5.6-236h5.6l5.6 236 5.5-.1 5.6-260.1h5.6l5.6 260.2 5.6-.1 5.6-235.9h5.5l5.6-24.2 5.6 274.3 5.6-250 5.6 235.9h5.6l5.5 14.1 5.6-14.1 5.6-48.6 5.6 48.5 5.6.1 5.6-260.2h16.7l5.6 260.2 5.6-.1 5.6.1 5.6-235.9 5.5-24.3 5.6.1 5.6 260.1L481 39.4l5.6 260.2 5.6-260.2h5.5l5.6 274.3 5.6-274.3 5.6 260.1 5.6-260.1 5.6 24.2h5.5l5.6 235.9 5.6-260.1 5.6 24.3 5.6 235.9 5.6-158.3 5.5 158.3h5.6l5.6-48.7 5.6 48.6 5.6-260.1 5.6 24.3 5.5 235.9 5.6-.1h5.6L615 39.4" fill="none" color="#000"/><text transform="translate(554.4 467.9)" stroke="none" fill="#000" font-family="Arial" font-size="12" text-anchor="end" color="#000"><tspan>score p10=0.1</tspan></text><path stroke="#56B4E9" d="M562.7 464h42.2M62.2 412.5H615" fill="none" color="#000"/><g><text transform="translate(554.4 485.9)" stroke="none" fill="#000" font-family="Arial" font-size="12" text-anchor="end" color="#000"><tspan>score median=0.25</tspan></text><path stroke="#E69F00" d="M562.7 482h42.2M62.2 225.5H615" fill="none" color="#000"/></g><g fill="none" color="#000" stroke="currentColor"><path stroke="#000" d="M62.2 18.1V428H615V18.1H62.2z"/></g></svg>

<?xml version="1.0" encoding="utf-8"  standalone="no"?>
<svg 
 width="640" height="500"
 viewBox="0 0 640 500"
 xmlns="http://www.w3.org/2000/svg"
 xmlns:xlink="http://www.w3.org/1999/xlink"
>

<title>Gnuplot</title>
<desc>Produced by GNUPLOT 5.4 patchlevel 0 </desc>

<g id="gnuplot_canvas">

<rect x="0" y="0" width="640" height="500" fill="#ffffff"/>
<defs>

	<circle id='gpDot' r='0.5' stroke-width='0.5' stroke='currentColor'/>
	<path id='gpPt0' stroke-width='0.222' stroke='currentColor' d='M-1,0 h2 M0,-1 v2'/>
	<path id='gpPt1' stroke-width='0.222' stroke='currentColor' d='M-1,-1 L1,1 M1,-1 L-1,1'/>
	<path id='gpPt2' stroke-width='0.222' stroke='currentColor' d='M-1,0 L1,0 M0,-1 L0,1 M-1,-1 L1,1 M-1,1 L1,-1'/>
	<rect id='gpPt3' stroke-width='0.222' stroke='currentColor' x='-1' y='-1' width='2' height='2'/>
	<rect id='gpPt4' stroke-width='0.222' stroke='currentColor' fill='currentColor' x='-1' y='-1' width='2' height='2'/>
	<circle id='gpPt5' stroke-width='0.222' stroke='currentColor' cx='0' cy='0' r='1'/>
	<use xlink:href='#gpPt5' id='gpPt6' fill='currentColor' stroke='none'/>
	<path id='gpPt7' stroke-width='0.222' stroke='currentColor' d='M0,-1.33 L-1.33,0.67 L1.33,0.67 z'/>
	<use xlink:href='#gpPt7' id='gpPt8' fill='currentColor' stroke='none'/>
	<use xlink:href='#gpPt7' id='gpPt9' stroke='currentColor' transform='rotate(180)'/>
	<use xlink:href='#gpPt9' id='gpPt10' fill='currentColor' stroke='none'/>
	<use xlink:href='#gpPt3' id='gpPt11' stroke='currentColor' transform='rotate(45)'/>
	<use xlink:href='#gpPt11' id='gpPt12' fill='currentColor' stroke='none'/>
	<path id='gpPt13' stroke-width='0.222' stroke='currentColor' d='M0,1.330 L1.265,0.411 L0.782,-1.067 L-0.782,-1.076 L-1.265,0.411 z'/>
	<use xlink:href='#gpPt13' id='gpPt14' fill='currentColor' stroke='none'/>
	<filter id='textbox' filterUnits='objectBoundingBox' x='0' y='0' height='1' width='1'>
	  <feFlood flood-color='#FFFFFF' flood-opacity='1' result='bgnd'/>
	  <feComposite in='SourceGraphic' in2='bgnd' operator='atop'/>
	</filter>
	<filter id='greybox' filterUnits='objectBoundingBox' x='0' y='0' height='1' width='1'>
	  <feFlood flood-color='lightgrey' flood-opacity='1' result='grey'/>
	  <feComposite in='SourceGraphic' in2='grey' operator='atop'/>
	</filter>
</defs>
<g fill="none" color="#FFFFFF" stroke="black" stroke-width="1.00" stroke-linecap="butt" stroke-linejoin="miter">
</g>
<g fill="none" color="black" stroke="currentColor" stroke-width="1.00" stroke-linecap="butt" stroke-linejoin="miter">
	<path stroke='black'  d='M62.2,412.5 L71.2,412.5 M615.0,412.5 L606.0,412.5  '/>	<g transform="translate(53.9,416.4)" stroke="none" fill="black" font-family="Arial" font-size="12.00"  text-anchor="end">
		<text><tspan font-family="Arial" > 0.1</tspan></text>
	</g>
</g>
<g fill="none" color="black" stroke="currentColor" stroke-width="1.00" stroke-linecap="butt" stroke-linejoin="miter">
	<path stroke='black'  d='M62.2,350.2 L71.2,350.2 M615.0,350.2 L606.0,350.2  '/>	<g transform="translate(53.9,354.1)" stroke="none" fill="black" font-family="Arial" font-size="12.00"  text-anchor="end">
		<text><tspan font-family="Arial" > 0.15</tspan></text>
	</g>
</g>
<g fill="none" color="black" stroke="currentColor" stroke-width="1.00" stroke-linecap="butt" stroke-linejoin="miter">
	<path stroke='black'  d='M62.2,287.9 L71.2,287.9 M615.0,287.9 L606.0,287.9  '/>	<g transform="translate(53.9,291.8)" stroke="none" fill="black" font-family="Arial" font-size="12.00"  text-anchor="end">
		<text><tspan font-family="Arial" > 0.2</tspan></text>
	</g>
</g>
<g fill="none" color="black" stroke="currentColor" stroke-width="1.00" stroke-linecap="butt" stroke-linejoin="miter">
	<path stroke='black'  d='M62.2,225.5 L71.2,225.5 M615.0,225.5 L606.0,225.5  '/>	<g transform="translate(53.9,229.4)" stroke="none" fill="black" font-family="Arial" font-size="12.00"  text-anchor="end">
		<text><tspan font-family="Arial" > 0.25</tspan></text>
	</g>
</g>
<g fill="none" color="black" stroke="currentColor" stroke-width="1.00" stroke-linecap="butt" stroke-linejoin="miter">
	<path stroke='black'  d='M62.2,163.2 L71.2,163.2 M615.0,163.2 L606.0,163.2  '/>	<g transform="translate(53.9,167.1)" stroke="none" fill="black" font-family="Arial" font-size="12.00"  text-anchor="end">
		<text><tspan font-family="Arial" > 0.3</tspan></text>
	</g>
</g>
<g fill="none" color="black" stroke="currentColor" stroke-width="1.00" stroke-linecap="butt" stroke-linejoin="miter">
	<path stroke='black'  d='M62.2,100.9 L71.2,100.9 M615.0,100.9 L606.0,100.9  '/>	<g transform="translate(53.9,104.8)" stroke="none" fill="black" font-family="Arial" font-size="12.00"  text-anchor="end">
		<text><tspan font-family="Arial" > 0.35</tspan></text>
	</g>
</g>
<g fill="none" color="black" stroke="currentColor" stroke-width="1.00" stroke-linecap="butt" stroke-linejoin="miter">
	<path stroke='black'  d='M62.2,38.5 L71.2,38.5 M615.0,38.5 L606.0,38.5  '/>	<g transform="translate(53.9,42.4)" stroke="none" fill="black" font-family="Arial" font-size="12.00"  text-anchor="end">
		<text><tspan font-family="Arial" > 0.4</tspan></text>
	</g>
</g>
<g fill="none" color="black" stroke="currentColor" stroke-width="1.00" stroke-linecap="butt" stroke-linejoin="miter">
	<path stroke='black'  d='M62.2,428.0 L62.2,419.0 M62.2,18.1 L62.2,27.1  '/>	<g transform="translate(62.2,449.9)" stroke="none" fill="black" font-family="Arial" font-size="12.00"  text-anchor="middle">
		<text><tspan font-family="Arial" > 0</tspan></text>
	</g>
</g>
<g fill="none" color="black" stroke="currentColor" stroke-width="1.00" stroke-linecap="butt" stroke-linejoin="miter">
	<path stroke='black'  d='M118.0,428.0 L118.0,419.0 M118.0,18.1 L118.0,27.1  '/>	<g transform="translate(118.0,449.9)" stroke="none" fill="black" font-family="Arial" font-size="12.00"  text-anchor="middle">
		<text><tspan font-family="Arial" > 10</tspan></text>
	</g>
</g>
<g fill="none" color="black" stroke="currentColor" stroke-width="1.00" stroke-linecap="butt" stroke-linejoin="miter">
	<path stroke='black'  d='M173.9,428.0 L173.9,419.0 M173.9,18.1 L173.9,27.1  '/>	<g transform="translate(173.9,449.9)" stroke="none" fill="black" font-family="Arial" font-size="12.00"  text-anchor="middle">
		<text><tspan font-family="Arial" > 20</tspan></text>
	</g>
</g>
<g fill="none" color="black" stroke="currentColor" stroke-width="1.00" stroke-linecap="butt" stroke-linejoin="miter">
	<path stroke='black'  d='M229.7,428.0 L229.7,419.0 M229.7,18.1 L229.7,27.1  '/>	<g transform="translate(229.7,449.9)" stroke="none" fill="black" font-family="Arial" font-size="12.00"  text-anchor="middle">
		<text><tspan font-family="Arial" > 30</tspan></text>
	</g>
</g>
<g fill="none" color="black" stroke="currentColor" stroke-width="1.00" stroke-linecap="butt" stroke-linejoin="miter">
	<path stroke='black'  d='M285.6,428.0 L285.6,419.0 M285.6,18.1 L285.6,27.1  '/>	<g transform="translate(285.6,449.9)" stroke="none" fill="black" font-family="Arial" font-size="12.00"  text-anchor="middle">
		<text><tspan font-family="Arial" > 40</tspan></text>
	</g>
</g>
<g fill="none" color="black" stroke="currentColor" stroke-width="1.00" stroke-linecap="butt" stroke-linejoin="miter">
	<path stroke='black'  d='M341.4,428.0 L341.4,419.0 M341.4,18.1 L341.4,27.1  '/>	<g transform="translate(341.4,449.9)" stroke="none" fill="black" font-family="Arial" font-size="12.00"  text-anchor="middle">
		<text><tspan font-family="Arial" > 50</tspan></text>
	</g>
</g>
<g fill="none" color="black" stroke="currentColor" stroke-width="1.00" stroke-linecap="butt" stroke-linejoin="miter">
	<path stroke='black'  d='M397.2,428.0 L397.2,419.0 M397.2,18.1 L397.2,27.1  '/>	<g transform="translate(397.2,449.9)" stroke="none" fill="black" font-family="Arial" font-size="12.00"  text-anchor="middle">
		<text><tspan font-family="Arial" > 60</tspan></text>
	</g>
</g>
<g fill="none" color="black" stroke="currentColor" stroke-width="1.00" stroke-linecap="butt" stroke-linejoin="miter">
	<path stroke='black'  d='M453.1,428.0 L453.1,419.0 M453.1,18.1 L453.1,27.1  '/>	<g transform="translate(453.1,449.9)" stroke="none" fill="black" font-family="Arial" font-size="12.00"  text-anchor="middle">
		<text><tspan font-family="Arial" > 70</tspan></text>
	</g>
</g>
<g fill="none" color="black" stroke="currentColor" stroke-width="1.00" stroke-linecap="butt" stroke-linejoin="miter">
	<path stroke='black'  d='M508.9,428.0 L508.9,419.0 M508.9,18.1 L508.9,27.1  '/>	<g transform="translate(508.9,449.9)" stroke="none" fill="black" font-family="Arial" font-size="12.00"  text-anchor="middle">
		<text><tspan font-family="Arial" > 80</tspan></text>
	</g>
</g>
<g fill="none" color="black" stroke="currentColor" stroke-width="1.00" stroke-linecap="butt" stroke-linejoin="miter">
	<path stroke='black'  d='M564.7,428.0 L564.7,419.0 M564.7,18.1 L564.7,27.1  '/>	<g transform="translate(564.7,449.9)" stroke="none" fill="black" font-family="Arial" font-size="12.00"  text-anchor="middle">
		<text><tspan font-family="Arial" > 90</tspan></text>
	</g>
</g>
<g fill="none" color="black" stroke="currentColor" stroke-width="1.00" stroke-linecap="butt" stroke-linejoin="miter">
</g>
<g fill="none" color="black" stroke="currentColor" stroke-width="1.00" stroke-linecap="butt" stroke-linejoin="miter">
	<path stroke='black'  d='M62.2,18.1 L62.2,428.0 L615.0,428.0 L615.0,18.1 L62.2,18.1 Z  '/></g>
<g fill="none" color="black" stroke="currentColor" stroke-width="1.00" stroke-linecap="butt" stroke-linejoin="miter">
</g>
	<g id="gnuplot_plot_1" ><title>pages+cached</title>
<g fill="none" color="black" stroke="currentColor" stroke-width="1.00" stroke-linecap="butt" stroke-linejoin="miter">
	<g transform="translate(279.8,467.9)" stroke="none" fill="black" font-family="Arial" font-size="12.00"  text-anchor="end">
		<text><tspan font-family="Arial" >pages+cached</tspan></text>
	</g>
</g>
<g fill="none" color="black" stroke="currentColor" stroke-width="1.00" stroke-linecap="butt" stroke-linejoin="miter">
	<path stroke='rgb(148,   0, 211)'  d='M288.1,464.0 L330.3,464.0 M62.2,190.5 L67.8,39.4 L73.4,63.6 L79.0,299.6 L84.5,299.6 L90.1,299.6
		L95.7,299.6 L101.3,63.7 L106.9,63.6 L112.5,39.4 L118.0,251.0 L123.6,39.4 L129.2,299.6 L134.8,63.7
		L140.4,39.4 L146.0,63.7 L151.5,299.6 L157.1,63.7 L162.7,231.5 L168.3,63.6 L173.9,251.0 L179.5,251.0
		L185.0,39.4 L190.6,299.6 L196.2,231.5 L201.8,251.0 L207.4,231.5 L213.0,39.4 L218.5,251.0 L224.1,63.7
		L229.7,39.4 L235.3,39.4 L240.9,299.6 L246.5,299.6 L252.1,39.4 L257.6,299.6 L263.2,39.4 L268.8,141.3
		L274.4,251.0 L280.0,39.4 L285.6,299.6 L291.1,299.6 L296.7,63.7 L302.3,231.5 L307.9,299.6 L313.5,231.5
		L319.1,63.6 L324.6,299.6 L330.2,299.6 L335.8,63.7 L341.4,313.7 L347.0,251.0 L352.6,299.6 L358.1,39.5
		L363.7,63.7 L369.3,26.0 L374.9,63.7 L380.5,63.6 L386.1,39.4 L391.6,251.0 L397.2,63.7 L402.8,39.4
		L408.4,251.0 L414.0,299.6 L419.6,63.7 L425.1,231.5 L430.7,299.6 L436.3,231.5 L441.9,231.5 L447.5,251.0
		L453.1,39.4 L458.7,299.6 L464.2,39.4 L469.8,39.4 L475.4,231.5 L481.0,299.5 L486.6,231.5 L492.2,251.0
		L497.7,299.6 L503.3,231.5 L508.9,63.7 L514.5,231.5 L520.1,63.7 L525.7,39.4 L531.2,39.4 L536.8,39.4
		L542.4,63.7 L548.0,299.6 L553.6,299.6 L559.2,63.7 L564.7,299.6 L570.3,63.6 L575.9,63.6 L581.5,420.1
		L587.1,231.5 L592.7,299.6 L598.2,313.7 L603.8,299.6 L609.4,251.0 L615.0,63.7  '/></g>
	</g>
	<g id="gnuplot_plot_2" ><title>pages+cached+nointeractive</title>
<g fill="none" color="black" stroke="currentColor" stroke-width="1.00" stroke-linecap="butt" stroke-linejoin="miter">
	<g transform="translate(279.8,485.9)" stroke="none" fill="black" font-family="Arial" font-size="12.00"  text-anchor="end">
		<text><tspan font-family="Arial" >pages+cached+nointeractive</tspan></text>
	</g>
</g>
<g fill="none" color="black" stroke="currentColor" stroke-width="1.00" stroke-linecap="butt" stroke-linejoin="miter">
	<path stroke='rgb(  0, 158, 115)'  d='M288.1,482.0 L330.3,482.0 M62.2,251.0 L67.8,299.6 L73.4,231.5 L79.0,231.5 L84.5,231.5 L90.1,299.6
		L95.7,251.0 L101.3,63.7 L106.9,39.4 L112.5,63.7 L118.0,39.4 L123.6,26.0 L129.2,251.0 L134.8,63.7
		L140.4,231.5 L146.0,299.6 L151.5,39.4 L157.1,299.6 L162.7,299.6 L168.3,63.7 L173.9,299.6 L179.5,299.5
		L185.0,299.5 L190.6,299.6 L196.2,63.7 L201.8,63.7 L207.4,299.6 L213.0,313.7 L218.5,39.4 L224.1,313.7
		L229.7,39.4 L235.3,299.6 L240.9,299.6 L246.5,63.7 L252.1,63.6 L257.6,299.6 L263.2,39.4 L268.8,299.5
		L274.4,39.4 L280.0,299.6 L285.6,299.5 L291.1,39.4 L296.7,39.4 L302.3,299.6 L307.9,63.6 L313.5,63.6
		L319.1,299.6 L324.6,299.5 L330.2,39.4 L335.8,39.4 L341.4,299.6 L347.0,299.5 L352.6,63.6 L358.1,63.6
		L363.7,39.4 L369.3,313.7 L374.9,63.7 L380.5,299.6 L386.1,299.6 L391.6,313.7 L397.2,299.6 L402.8,251.0
		L408.4,299.5 L414.0,299.6 L419.6,39.4 L425.1,39.4 L430.7,39.4 L436.3,39.4 L441.9,299.6 L447.5,299.5
		L453.1,299.6 L458.7,63.7 L464.2,39.4 L469.8,39.5 L475.4,299.6 L481.0,39.4 L486.6,299.6 L492.2,39.4
		L497.7,39.4 L503.3,313.7 L508.9,39.4 L514.5,299.5 L520.1,39.4 L525.7,63.6 L531.2,63.6 L536.8,299.5
		L542.4,39.4 L548.0,63.7 L553.6,299.6 L559.2,141.3 L564.7,299.6 L570.3,299.6 L575.9,250.9 L581.5,299.5
		L587.1,39.4 L592.7,63.7 L598.2,299.6 L603.8,299.5 L609.4,299.5 L615.0,39.4  '/></g>
	</g>
	<g id="gnuplot_plot_3" ><title>score p10=0.1</title>
<g fill="none" color="black" stroke="currentColor" stroke-width="1.00" stroke-linecap="butt" stroke-linejoin="miter">
	<g transform="translate(554.4,467.9)" stroke="none" fill="black" font-family="Arial" font-size="12.00"  text-anchor="end">
		<text><tspan font-family="Arial" >score p10=0.1</tspan></text>
	</g>
</g>
<g fill="none" color="black" stroke="currentColor" stroke-width="1.00" stroke-linecap="butt" stroke-linejoin="miter">
	<path stroke='rgb( 86, 180, 233)'  d='M562.7,464.0 L604.9,464.0 M62.2,412.5 L67.8,412.5 L73.4,412.5 L79.0,412.5 L84.5,412.5 L90.1,412.5
		L95.7,412.5 L101.3,412.5 L106.9,412.5 L112.5,412.5 L118.0,412.5 L123.6,412.5 L129.2,412.5 L134.8,412.5
		L140.4,412.5 L146.0,412.5 L151.5,412.5 L157.1,412.5 L162.7,412.5 L168.3,412.5 L173.9,412.5 L179.5,412.5
		L185.0,412.5 L190.6,412.5 L196.2,412.5 L201.8,412.5 L207.4,412.5 L213.0,412.5 L218.5,412.5 L224.1,412.5
		L229.7,412.5 L235.3,412.5 L240.9,412.5 L246.5,412.5 L252.1,412.5 L257.6,412.5 L263.2,412.5 L268.8,412.5
		L274.4,412.5 L280.0,412.5 L285.6,412.5 L291.1,412.5 L296.7,412.5 L302.3,412.5 L307.9,412.5 L313.5,412.5
		L319.1,412.5 L324.6,412.5 L330.2,412.5 L335.8,412.5 L341.4,412.5 L347.0,412.5 L352.6,412.5 L358.1,412.5
		L363.7,412.5 L369.3,412.5 L374.9,412.5 L380.5,412.5 L386.1,412.5 L391.6,412.5 L397.2,412.5 L402.8,412.5
		L408.4,412.5 L414.0,412.5 L419.6,412.5 L425.1,412.5 L430.7,412.5 L436.3,412.5 L441.9,412.5 L447.5,412.5
		L453.1,412.5 L458.7,412.5 L464.2,412.5 L469.8,412.5 L475.4,412.5 L481.0,412.5 L486.6,412.5 L492.2,412.5
		L497.7,412.5 L503.3,412.5 L508.9,412.5 L514.5,412.5 L520.1,412.5 L525.7,412.5 L531.2,412.5 L536.8,412.5
		L542.4,412.5 L548.0,412.5 L553.6,412.5 L559.2,412.5 L564.7,412.5 L570.3,412.5 L575.9,412.5 L581.5,412.5
		L587.1,412.5 L592.7,412.5 L598.2,412.5 L603.8,412.5 L609.4,412.5 L615.0,412.5  '/></g>
	</g>
	<g id="gnuplot_plot_4" ><title>score median=0.25</title>
<g fill="none" color="black" stroke="currentColor" stroke-width="1.00" stroke-linecap="butt" stroke-linejoin="miter">
	<g transform="translate(554.4,485.9)" stroke="none" fill="black" font-family="Arial" font-size="12.00"  text-anchor="end">
		<text><tspan font-family="Arial" >score median=0.25</tspan></text>
	</g>
</g>
<g fill="none" color="black" stroke="currentColor" stroke-width="1.00" stroke-linecap="butt" stroke-linejoin="miter">
	<path stroke='rgb(230, 159,   0)'  d='M562.7,482.0 L604.9,482.0 M62.2,225.5 L67.8,225.5 L73.4,225.5 L79.0,225.5 L84.5,225.5 L90.1,225.5
		L95.7,225.5 L101.3,225.5 L106.9,225.5 L112.5,225.5 L118.0,225.5 L123.6,225.5 L129.2,225.5 L134.8,225.5
		L140.4,225.5 L146.0,225.5 L151.5,225.5 L157.1,225.5 L162.7,225.5 L168.3,225.5 L173.9,225.5 L179.5,225.5
		L185.0,225.5 L190.6,225.5 L196.2,225.5 L201.8,225.5 L207.4,225.5 L213.0,225.5 L218.5,225.5 L224.1,225.5
		L229.7,225.5 L235.3,225.5 L240.9,225.5 L246.5,225.5 L252.1,225.5 L257.6,225.5 L263.2,225.5 L268.8,225.5
		L274.4,225.5 L280.0,225.5 L285.6,225.5 L291.1,225.5 L296.7,225.5 L302.3,225.5 L307.9,225.5 L313.5,225.5
		L319.1,225.5 L324.6,225.5 L330.2,225.5 L335.8,225.5 L341.4,225.5 L347.0,225.5 L352.6,225.5 L358.1,225.5
		L363.7,225.5 L369.3,225.5 L374.9,225.5 L380.5,225
